X:1
T:[ID 1-109a]
T:[ID 1-109a]
T:Bezeichnung standardisiert: Tanz mit mir; Tantz In dieser Quelle auch als: Tantz mit mir
T:Urheber unbekannt Datum in der hier transkribierten schriftlichen Quelle: 1767
C:Urheber unbekannt
C:Datum in der hier transkribierten schriftlichen Quelle: 1767
L:1/8
M:none
K:D
V:1 treble 
V:1
 df d2 | eg e2 | cABc | dc d2 | df d2 | eg e2 | cABc | d2 D2 :: faaf | gb/g/ e2 | egge | fa/f/ d2 | %12
 df d2 | eg e2 | cABc | d2 D2 :| %16

